dist/intermediate-svg/table.svg

<?xml version="1.0" encoding="utf-8"?><svg width="13" height="14" fill="none" xmlns="http://www.w3.org/2000/svg" viewBox="0 0 13 14"><path d="M10.7964 1.5H2.29639C1.44639 1.5 0.796387 2.15 0.796387 3V12.5C0.796387 13.05 1.24639 13.5 1.79639 13.5H11.2964C11.8464 13.5 12.2964 13.05 12.2964 12.5V3C12.2964 2.15 11.6464 1.5 10.7964 1.5ZM4.29639 12.25C4.29639 12.4 4.19639 12.5 4.04639 12.5H2.04639C1.89639 12.5 1.79639 12.4 1.79639 12.25V10.75C1.79639 10.6 1.89639 10.5 2.04639 10.5H4.04639C4.19639 10.5 4.29639 10.6 4.29639 10.75V12.25ZM4.29639 9.25C4.29639 9.4 4.19639 9.5 4.04639 9.5H2.04639C1.89639 9.5 1.79639 9.4 1.79639 9.25V7.75C1.79639 7.6 1.89639 7.5 2.04639 7.5H4.04639C4.19639 7.5 4.29639 7.6 4.29639 7.75V9.25ZM4.29639 6.25C4.29639 6.4 4.19639 6.5 4.04639 6.5H2.04639C1.89639 6.5 1.79639 6.4 1.79639 6.25V4.75C1.79639 4.6 1.89639 4.5 2.04639 4.5H4.04639C4.19639 4.5 4.29639 4.6 4.29639 4.75V6.25ZM7.79639 12.25C7.79639 12.4 7.69639 12.5 7.54639 12.5H5.54639C5.39639 12.5 5.29639 12.4 5.29639 12.25V10.75C5.29639 10.6 5.39639 10.5 5.54639 10.5H7.54639C7.69639 10.5 7.79639 10.6 7.79639 10.75V12.25ZM7.79639 9.25C7.79639 9.4 7.69639 9.5 7.54639 9.5H5.54639C5.39639 9.5 5.29639 9.4 5.29639 9.25V7.75C5.29639 7.6 5.39639 7.5 5.54639 7.5H7.54639C7.69639 7.5 7.79639 7.6 7.79639 7.75V9.25ZM7.79639 6.25C7.79639 6.4 7.69639 6.5 7.54639 6.5H5.54639C5.39639 6.5 5.29639 6.4 5.29639 6.25V4.75C5.29639 4.6 5.39639 4.5 5.54639 4.5H7.54639C7.69639 4.5 7.79639 4.6 7.79639 4.75V6.25ZM11.2964 12.25C11.2964 12.4 11.1964 12.5 11.0464 12.5H9.04639C8.89639 12.5 8.79639 12.4 8.79639 12.25V10.75C8.79639 10.6 8.89639 10.5 9.04639 10.5H11.0464C11.1964 10.5 11.2964 10.6 11.2964 10.75V12.25ZM11.2964 9.25C11.2964 9.4 11.1964 9.5 11.0464 9.5H9.04639C8.89639 9.5 8.79639 9.4 8.79639 9.25V7.75C8.79639 7.6 8.89639 7.5 9.04639 7.5H11.0464C11.1964 7.5 11.2964 7.6 11.2964 7.75V9.25ZM11.2964 6.25C11.2964 6.4 11.1964 6.5 11.0464 6.5H9.04639C8.89639 6.5 8.79639 6.4 8.79639 6.25V4.75C8.79639 4.6 8.89639 4.5 9.04639 4.5H11.0464C11.1964 4.5 11.2964 4.6 11.2964 4.75V6.25Z" fill="#fff"/><path d="M10.7964 0.5H2.29639C1.44639 0.5 0.796387 1.15 0.796387 2V11.5C0.796387 12.05 1.24639 12.5 1.79639 12.5H11.2964C11.8464 12.5 12.2964 12.05 12.2964 11.5V2C12.2964 1.15 11.6464 0.5 10.7964 0.5ZM4.29639 11.25C4.29639 11.4 4.19639 11.5 4.04639 11.5H2.04639C1.89639 11.5 1.79639 11.4 1.79639 11.25V9.75C1.79639 9.6 1.89639 9.5 2.04639 9.5H4.04639C4.19639 9.5 4.29639 9.6 4.29639 9.75V11.25ZM4.29639 8.25C4.29639 8.4 4.19639 8.5 4.04639 8.5H2.04639C1.89639 8.5 1.79639 8.4 1.79639 8.25V6.75C1.79639 6.6 1.89639 6.5 2.04639 6.5H4.04639C4.19639 6.5 4.29639 6.6 4.29639 6.75V8.25ZM4.29639 5.25C4.29639 5.4 4.19639 5.5 4.04639 5.5H2.04639C1.89639 5.5 1.79639 5.4 1.79639 5.25V3.75C1.79639 3.6 1.89639 3.5 2.04639 3.5H4.04639C4.19639 3.5 4.29639 3.6 4.29639 3.75V5.25ZM7.79639 11.25C7.79639 11.4 7.69639 11.5 7.54639 11.5H5.54639C5.39639 11.5 5.29639 11.4 5.29639 11.25V9.75C5.29639 9.6 5.39639 9.5 5.54639 9.5H7.54639C7.69639 9.5 7.79639 9.6 7.79639 9.75V11.25ZM7.79639 8.25C7.79639 8.4 7.69639 8.5 7.54639 8.5H5.54639C5.39639 8.5 5.29639 8.4 5.29639 8.25V6.75C5.29639 6.6 5.39639 6.5 5.54639 6.5H7.54639C7.69639 6.5 7.79639 6.6 7.79639 6.75V8.25ZM7.79639 5.25C7.79639 5.4 7.69639 5.5 7.54639 5.5H5.54639C5.39639 5.5 5.29639 5.4 5.29639 5.25V3.75C5.29639 3.6 5.39639 3.5 5.54639 3.5H7.54639C7.69639 3.5 7.79639 3.6 7.79639 3.75V5.25ZM11.2964 11.25C11.2964 11.4 11.1964 11.5 11.0464 11.5H9.04639C8.89639 11.5 8.79639 11.4 8.79639 11.25V9.75C8.79639 9.6 8.89639 9.5 9.04639 9.5H11.0464C11.1964 9.5 11.2964 9.6 11.2964 9.75V11.25ZM11.2964 8.25C11.2964 8.4 11.1964 8.5 11.0464 8.5H9.04639C8.89639 8.5 8.79639 8.4 8.79639 8.25V6.75C8.79639 6.6 8.89639 6.5 9.04639 6.5H11.0464C11.1964 6.5 11.2964 6.6 11.2964 6.75V8.25ZM11.2964 5.25C11.2964 5.4 11.1964 5.5 11.0464 5.5H9.04639C8.89639 5.5 8.79639 5.4 8.79639 5.25V3.75C8.79639 3.6 8.89639 3.5 9.04639 3.5H11.0464C11.1964 3.5 11.2964 3.6 11.2964 3.75V5.25Z" fill="#1E6393"/></svg>

<?xml version="1.0" encoding="utf-8"?><svg width="13" height="14" fill="none" xmlns="http://www.w3.org/2000/svg" viewBox="0 0 13 14"><path d="M10.796 1.5h-8.5c-.85 0-1.5.65-1.5 1.5v9.5c0 .55.45 1 1 1h9.5c.55 0 1-.45 1-1V3c0-.85-.65-1.5-1.5-1.5zm-6.5 10.75c0 .15-.1.25-.25.25h-2c-.15 0-.25-.1-.25-.25v-1.5c0-.15.1-.25.25-.25h2c.15 0 .25.1.25.25v1.5zm0-3c0 .15-.1.25-.25.25h-2c-.15 0-.25-.1-.25-.25v-1.5c0-.15.1-.25.25-.25h2c.15 0 .25.1.25.25v1.5zm0-3c0 .15-.1.25-.25.25h-2c-.15 0-.25-.1-.25-.25v-1.5c0-.15.1-.25.25-.25h2c.15 0 .25.1.25.25v1.5zm3.5 6c0 .15-.1.25-.25.25h-2c-.15 0-.25-.1-.25-.25v-1.5c0-.15.1-.25.25-.25h2c.15 0 .25.1.25.25v1.5zm0-3c0 .15-.1.25-.25.25h-2c-.15 0-.25-.1-.25-.25v-1.5c0-.15.1-.25.25-.25h2c.15 0 .25.1.25.25v1.5zm0-3c0 .15-.1.25-.25.25h-2c-.15 0-.25-.1-.25-.25v-1.5c0-.15.1-.25.25-.25h2c.15 0 .25.1.25.25v1.5zm3.5 6c0 .15-.1.25-.25.25h-2c-.15 0-.25-.1-.25-.25v-1.5c0-.15.1-.25.25-.25h2c.15 0 .25.1.25.25v1.5zm0-3c0 .15-.1.25-.25.25h-2c-.15 0-.25-.1-.25-.25v-1.5c0-.15.1-.25.25-.25h2c.15 0 .25.1.25.25v1.5zm0-3c0 .15-.1.25-.25.25h-2c-.15 0-.25-.1-.25-.25v-1.5c0-.15.1-.25.25-.25h2c.15 0 .25.1.25.25v1.5z" fill="#fff"/><path d="M10.796.5h-8.5c-.85 0-1.5.65-1.5 1.5v9.5c0 .55.45 1 1 1h9.5c.55 0 1-.45 1-1V2c0-.85-.65-1.5-1.5-1.5zm-6.5 10.75c0 .15-.1.25-.25.25h-2c-.15 0-.25-.1-.25-.25v-1.5c0-.15.1-.25.25-.25h2c.15 0 .25.1.25.25v1.5zm0-3c0 .15-.1.25-.25.25h-2c-.15 0-.25-.1-.25-.25v-1.5c0-.15.1-.25.25-.25h2c.15 0 .25.1.25.25v1.5zm0-3c0 .15-.1.25-.25.25h-2c-.15 0-.25-.1-.25-.25v-1.5c0-.15.1-.25.25-.25h2c.15 0 .25.1.25.25v1.5zm3.5 6c0 .15-.1.25-.25.25h-2c-.15 0-.25-.1-.25-.25v-1.5c0-.15.1-.25.25-.25h2c.15 0 .25.1.25.25v1.5zm0-3c0 .15-.1.25-.25.25h-2c-.15 0-.25-.1-.25-.25v-1.5c0-.15.1-.25.25-.25h2c.15 0 .25.1.25.25v1.5zm0-3c0 .15-.1.25-.25.25h-2c-.15 0-.25-.1-.25-.25v-1.5c0-.15.1-.25.25-.25h2c.15 0 .25.1.25.25v1.5zm3.5 6c0 .15-.1.25-.25.25h-2c-.15 0-.25-.1-.25-.25v-1.5c0-.15.1-.25.25-.25h2c.15 0 .25.1.25.25v1.5zm0-3c0 .15-.1.25-.25.25h-2c-.15 0-.25-.1-.25-.25v-1.5c0-.15.1-.25.25-.25h2c.15 0 .25.1.25.25v1.5zm0-3c0 .15-.1.25-.25.25h-2c-.15 0-.25-.1-.25-.25v-1.5c0-.15.1-.25.25-.25h2c.15 0 .25.1.25.25v1.5z" fill="#1E6393"/></svg>
